X: 29
T: George Booker
C:
M:4/4
L:1/4
K:A
"A"A,2C/2A,/2C/2E/2|\
"D"A/2A/2c/2A/2B/2A/2c|\
"A"A,2C/2A,/2C/2E/2|\
"D"A/2A/2c/2A/2B/2A/2F/2D/2|\
"A"A,2C/2A,/2C/2E/2|\
"D"A/2A/2c/2A/2B/2A/2B/2c/2|\
"G"d/2e/2=g/2f/2e/2d/2c/2A/2|\
|1 \
"A"B/2A/2c/2A/2"E"B/2A/2F/2E/2:|\
:|2 \
"A"B/2A/2c/2A/2"E"B/2A/2F/2F/2|:\
(3"A"A/2B/2c/2a/2c/2A/2c/2a/2c/2|\
(3A/2B/2c/2a/2e/2f/2e/2c/2A/2|\
"E"BbBb|\
"E"B/2B/2b/2g/2a/2g/2f/2e/2|\
(3"A"A/2B/2c/2a/2c/2A/2c/2a/2c/2|\
(3"A"A/2B/2c/2a/2e/2"D"f/2e/2c/2A/2|\
"G"d/2e/2=g/2f/2e/2d/2c/2A/2|\
"A"B/2A/2c/2A/2"E"B/2A/2F/2F/2:|\
%%sep 2 1 500
